src/assets/ExternalPage.svg

<svg fill="none" height="20" viewBox="0 0 20 20" width="20" xmlns="http://www.w3.org/2000/svg"><path clip-rule="evenodd" d="m4.07692 3.75c-.0867 0-.16986.03444-.23117.09575s-.09575.14447-.09575.23117v11.84618c0 .0867.03444.1698.09575.2311.06131.0614.14447.0958.23117.0958h11.84618c.0867 0 .1698-.0344.2311-.0958.0614-.0613.0958-.1444.0958-.2311v-4.8462c0-.4142.3358-.75.75-.75s.75.3358.75.75v4.8462c0 .4845-.1925.9492-.5351 1.2918s-.8073.5351-1.2918.5351h-11.84618c-.48453 0-.94921-.1925-1.29183-.5351-.34261-.3426-.53509-.8073-.53509-1.2918v-11.84618c0-.48453.19248-.94921.53509-1.29183.34262-.34261.8073-.53509 1.29183-.53509h4.84616c.41421 0 .75.33579.75.75s-.33579.75-.75.75zm8.40388-.75c0-.41421.3358-.75.75-.75h3.7692c.2005 0 .3825.07864.5171.20675.0091.00862.0179.01747.0265.02653.0637.06693.1126.14274.1468.22331.0384.09012.0596.18929.0596.29341v3.76923c0 .41421-.3358.75-.75.75s-.75-.33579-.75-.75v-1.95857l-5.7197 5.71964c-.2929.2929-.76774.2929-1.06063 0s-.29289-.76774 0-1.06063l5.71963-5.71967h-1.9585c-.4142 0-.75-.33579-.75-.75z" fill="#1855d1" fill-rule="evenodd"/></svg>

<svg width="20" height="20" viewBox="0 0 20 20" fill="none" xmlns="http://www.w3.org/2000/svg">
<path fill-rule="evenodd" clip-rule="evenodd" d="M4.07692 3.75C3.99022 3.75 3.90706 3.78444 3.84575 3.84575C3.78444 3.90706 3.75 3.99022 3.75 4.07692V15.9231C3.75 16.0098 3.78444 16.0929 3.84575 16.1542C3.90706 16.2156 3.99022 16.25 4.07692 16.25H15.9231C16.0098 16.25 16.0929 16.2156 16.1542 16.1542C16.2156 16.0929 16.25 16.0098 16.25 15.9231V11.0769C16.25 10.6627 16.5858 10.3269 17 10.3269C17.4142 10.3269 17.75 10.6627 17.75 11.0769V15.9231C17.75 16.4076 17.5575 16.8723 17.2149 17.2149C16.8723 17.5575 16.4076 17.75 15.9231 17.75H4.07692C3.59239 17.75 3.12771 17.5575 2.78509 17.2149C2.44248 16.8723 2.25 16.4076 2.25 15.9231V4.07692C2.25 3.59239 2.44248 3.12771 2.78509 2.78509C3.12771 2.44248 3.59239 2.25 4.07692 2.25H8.92308C9.33729 2.25 9.67308 2.58579 9.67308 3C9.67308 3.41421 9.33729 3.75 8.92308 3.75H4.07692ZM12.4808 3C12.4808 2.58579 12.8166 2.25 13.2308 2.25H17C17.2005 2.25 17.3825 2.32864 17.5171 2.45675C17.5262 2.46537 17.535 2.47422 17.5436 2.48328C17.6073 2.55021 17.6562 2.62602 17.6904 2.70659C17.7288 2.79671 17.75 2.89588 17.75 3V6.76923C17.75 7.18344 17.4142 7.51923 17 7.51923C16.5858 7.51923 16.25 7.18344 16.25 6.76923V4.81066L10.5303 10.5303C10.2374 10.8232 9.76256 10.8232 9.46967 10.5303C9.17678 10.2374 9.17678 9.76256 9.46967 9.46967L15.1893 3.75H13.2308C12.8166 3.75 12.4808 3.41421 12.4808 3Z" fill="#1855D1"/>
</svg>
